images/renZEC.svg

<svg height="250" viewBox="0 0 250 250" width="250" xmlns="http://www.w3.org/2000/svg"><g fill="#87888c"><path d="m125 0c-69.035156 0-125 55.964844-125 125s55.964844 125 125 125 125-55.964844 125-125c-.058594-69.011719-55.988281-124.9414062-125-125zm0 229.367188c-57.640625 0-104.367188-46.726563-104.367188-104.367188s46.726563-104.367188 104.367188-104.367188 104.367188 46.726563 104.367188 104.367188c-.058594 57.617188-46.75 104.308594-104.367188 104.367188zm0 0"/><path d="m125 26.515625c-54.449219 0-98.589844 44.140625-98.589844 98.589844s44.140625 98.589843 98.589844 98.589843 98.589844-44.140624 98.589844-98.589843-44.140625-98.589844-98.589844-98.589844zm44.578125 59.433594-52.816406 71.761719h52.816406v25.386718h-34.085937v20.777344h-21.125v-20.777344h-33.945313v-19.222656l52.816406-71.691406h-52.816406v-25.28125h34.085937v-20.882813h21.125v20.882813h34.085938zm0 0"/></g></svg>

<svg xmlns="http://www.w3.org/2000/svg" width="250" height="250"><g fill="#87888c"><path d="M125 0C55.965 0 0 55.965 0 125s55.965 125 125 125 125-55.965 125-125C249.941 55.988 194.012.059 125 0zm0 229.367c-57.64 0-104.367-46.726-104.367-104.367S67.359 20.633 125 20.633 229.367 67.359 229.367 125c-.058 57.617-46.75 104.309-104.367 104.367zm0 0"/><path d="M125 26.516c-54.45 0-98.59 44.14-98.59 98.59s44.14 98.59 98.59 98.59 98.59-44.141 98.59-98.59-44.14-98.59-98.59-98.59zm44.578 59.433-52.816 71.762h52.816v25.387h-34.086v20.777h-21.125v-20.777H80.422v-19.223l52.816-71.691H80.422V66.902h34.086V46.02h21.125v20.882h34.086zm0 0"/></g></svg>
